_includes/icons/ios-upload-to-cloud.svg

<svg fill="#666" height="50" viewBox="0 0 50 50" width="50" xmlns="http://www.w3.org/2000/svg"><path d="m29 4.53125c-5.214844 0-9.628906 3.121094-11.75 7.53125-1.128906-.777344-2.4375-1.34375-3.90625-1.34375-3.726562 0-6.699219 2.949219-6.90625 6.625-3.726562 1.34375-6.4375 4.820313-6.4375 9 0 5.328125 4.328125 9.65625 9.65625 9.65625h8.34375c.359375.003906.695313-.183594.878906-.496094.179688-.3125.179688-.695312 0-1.007812-.183593-.3125-.519531-.5-.878906-.496094h-8.34375c-4.25 0-7.65625-3.410156-7.65625-7.65625 0-3.535156 2.382813-6.511719 5.625-7.40625.441406-.128906.738281-.542969.71875-1-.003906-.140625 0-.210937 0-.21875 0-2.777344 2.222656-5 5-5 1.390625 0 2.65625.558594 3.5625 1.46875.238281.230469.578125.332031.902344.261719.328125-.070313.597656-.296875.722656-.605469 1.574219-4.25 5.660156-7.3125 10.46875-7.3125 6.171875 0 11.15625 4.988281 11.15625 11.15625 0 .457031-.035156.90625-.09375 1.375-.035156.28125.050781.5625.234375.777344s.453125.339844.734375.347656h.0625c3.824219 0 6.90625 3.082031 6.90625 6.90625s-3.082031 6.90625-6.90625 6.90625h-9.09375c-.359375-.003906-.695312.183594-.878906.496094-.179688.3125-.179688.695312 0 1.007812.183594.3125.519531.5.878906.496094h9.09375c4.90625 0 8.90625-4 8.90625-8.90625 0-4.550781-3.492187-8.167969-7.90625-8.6875.015625-.242187.0625-.46875.0625-.71875 0-7.25-5.90625-13.15625-13.15625-13.15625zm-4 17.0625-.71875.6875-5 5c-.398437.398438-.398437 1.039063 0 1.4375.398438.398438 1.039063.398438 1.4375 0l3.28125-3.28125v17.5625c-.003906.359375.183594.695313.496094.878906.3125.179688.695312.179688 1.007812 0 .3125-.183593.5-.519531.496094-.878906v-17.5625l3.28125 3.28125c.398438.398438 1.039063.398438 1.4375 0 .398438-.398437.398438-1.039062 0-1.4375l-5-5z"/></svg>

<svg xmlns="http://www.w3.org/2000/svg" viewBox="0 0 50 50" width="50" height="50" fill="#666"><path d="M 29 4.53125 C 23.785156 4.53125 19.371094 7.652344 17.25 12.0625 C 16.121094 11.285156 14.8125 10.71875 13.34375 10.71875 C 9.617188 10.71875 6.644531 13.667969 6.4375 17.34375 C 2.710938 18.6875 0 22.164063 0 26.34375 C 0 31.671875 4.328125 36 9.65625 36 L 18 36 C 18.359375 36.003906 18.695313 35.816406 18.878906 35.503906 C 19.058594 35.191406 19.058594 34.808594 18.878906 34.496094 C 18.695313 34.183594 18.359375 33.996094 18 34 L 9.65625 34 C 5.40625 34 2 30.589844 2 26.34375 C 2 22.808594 4.382813 19.832031 7.625 18.9375 C 8.066406 18.808594 8.363281 18.394531 8.34375 17.9375 C 8.339844 17.796875 8.34375 17.726563 8.34375 17.71875 C 8.34375 14.941406 10.566406 12.71875 13.34375 12.71875 C 14.734375 12.71875 16 13.277344 16.90625 14.1875 C 17.144531 14.417969 17.484375 14.519531 17.808594 14.449219 C 18.136719 14.378906 18.40625 14.152344 18.53125 13.84375 C 20.105469 9.59375 24.191406 6.53125 29 6.53125 C 35.171875 6.53125 40.15625 11.519531 40.15625 17.6875 C 40.15625 18.144531 40.121094 18.59375 40.0625 19.0625 C 40.027344 19.34375 40.113281 19.625 40.296875 19.839844 C 40.480469 20.054688 40.75 20.179688 41.03125 20.1875 L 41.09375 20.1875 C 44.917969 20.1875 48 23.269531 48 27.09375 C 48 30.917969 44.917969 34 41.09375 34 L 32 34 C 31.640625 33.996094 31.304688 34.183594 31.121094 34.496094 C 30.941406 34.808594 30.941406 35.191406 31.121094 35.503906 C 31.304688 35.816406 31.640625 36.003906 32 36 L 41.09375 36 C 46 36 50 32 50 27.09375 C 50 22.542969 46.507813 18.925781 42.09375 18.40625 C 42.109375 18.164063 42.15625 17.9375 42.15625 17.6875 C 42.15625 10.4375 36.25 4.53125 29 4.53125 Z M 25 21.59375 L 24.28125 22.28125 L 19.28125 27.28125 C 18.882813 27.679688 18.882813 28.320313 19.28125 28.71875 C 19.679688 29.117188 20.320313 29.117188 20.71875 28.71875 L 24 25.4375 L 24 43 C 23.996094 43.359375 24.183594 43.695313 24.496094 43.878906 C 24.808594 44.058594 25.191406 44.058594 25.503906 43.878906 C 25.816406 43.695313 26.003906 43.359375 26 43 L 26 25.4375 L 29.28125 28.71875 C 29.679688 29.117188 30.320313 29.117188 30.71875 28.71875 C 31.117188 28.320313 31.117188 27.679688 30.71875 27.28125 L 25.71875 22.28125 Z"/></svg>
